X:1
T:WHO MADE YOUR BREECHES? -- REEL
B:Ryan's Mammoth Collection of Fiddle Tunes
R:reel
Z:Contributed 20000421014712 by John Chambers jcsd:world.std.com
Z:Contributed by Ray Davies,  ray:davies99.freeserve.co.uk
M:C|
L:1/8
K:D
!Segno!|]\
vdBAF D2(EF) | GFGA BEEc | dBAF D2(EF) | GBAG FABc |
 dBAF D2(EF) | GFGA BEEc | dBAF D2(EF) | GBAG FDD2 |]
 dcde f2(ec) | dcde fBBc | dcde f2(ec) | dBAG (FD)D2 |
 d2de f2ec | d2de fBkB2 | fedc d2(dc) | BABc d2(ce) !Segno!|]
